app/dist/common/images/tasly-pharmaceutica.svg

<svg height="18" viewBox="0 0 18 18" width="18" xmlns="http://www.w3.org/2000/svg"><path d="m0 0h18v18h-18z" fill="#f0f3fa"/><path d="m9 10.3 1.47 2.7h-2.94zm2.78-1.3-.56-1h-2.16l.55 1zm.55 1h-2.16l1.66 3h2.17zm-3.93-1 .55-1h-2.17l-.56 1zm-2.72 1h2.16l-1.66 3h-2.18l1.67-3zm3.32-6 1.67 3h-3.34z" fill="#e32028"/></svg>

<!-- by TradingView --><svg width="18" height="18" viewBox="0 0 18 18" xmlns="http://www.w3.org/2000/svg"><path fill="#F0F3FA" d="M0 0h18v18H0z"/><path d="m9 10.3 1.47 2.7H7.53L9 10.3ZM11.78 9l-.56-1H9.06l.55 1h2.17Zm.55 1h-2.16l1.66 3H14l-1.67-3ZM8.4 9l.55-1H6.78l-.56 1H8.4Zm-2.72 1h2.16l-1.66 3H4l1.67-3ZM9 4l1.67 3H7.33L9 4Z" fill="#E32028"/></svg>
